static/logos/squarespace-glyph-color.svg

<svg width="50" height="40" viewBox="0 0 50 40" fill="none" xmlns="http://www.w3.org/2000/svg">
<g clip-path="url(#clip0_1_945)">
<path d="M31.8196 7.94262C30.8777 7.00053 29.3503 7.00053 28.4089 7.94262L13.0594 23.2923C11.1746 25.1756 8.12101 25.1756 6.2376 23.2923C4.35223 21.4083 4.35223 18.3543 6.2376 16.4694L21.2916 1.41589C19.4078 -0.468498 16.353 -0.468498 14.4692 1.41589L2.82542 13.0593C-0.941806 16.8273 -0.941806 22.9354 2.82542 26.7037C6.59362 30.4719 12.7014 30.4719 16.4696 26.7037L31.8196 11.3538C32.7609 10.4119 32.7609 8.88453 31.8196 7.94262V7.94262ZM36.9361 2.8265C33.1679 -0.942087 27.06 -0.942087 23.2918 2.8265L7.94271 18.1754C7.00139 19.1168 7.00139 20.6451 7.94271 21.5867C8.88461 22.5286 10.4112 22.5286 11.3533 21.5867L26.7038 6.23771C28.5876 4.35331 31.6413 4.35331 33.5247 6.23771C34.4676 7.17902 35.9944 7.17902 36.9363 6.23771C37.8782 5.29483 37.8782 3.76841 36.9363 2.8265H36.9361ZM42.053 18.1754C41.1111 17.2345 39.5833 17.2345 38.6414 18.1754L23.2918 33.525C21.408 35.4088 18.3534 35.4088 16.4696 33.525C15.5283 32.5837 14.0013 32.5837 13.0594 33.525C12.1161 34.4673 12.1161 35.9947 13.0594 36.9356C16.8261 40.7038 22.9354 40.7038 26.7036 36.9356L42.053 21.5867C42.9943 20.6453 42.9943 19.117 42.053 18.1754ZM47.1701 13.0595C43.4019 9.29191 37.2931 9.29191 33.5258 13.0595L18.1753 28.4094C17.2334 29.3504 17.2334 30.8787 18.1753 31.8201C19.1178 32.7626 20.6452 32.7626 21.5865 31.8201L36.9361 16.4705C38.8193 14.5863 41.8745 14.5863 43.7579 16.4705C45.6417 18.3545 45.6417 21.4085 43.7579 23.2925L28.7038 38.347C30.5876 40.2302 33.6409 40.2302 35.5262 38.347L47.1701 26.7036C50.9373 22.935 50.9373 16.8271 47.1701 13.0595V13.0595Z" fill="#1A1918"/>
</g>
<defs>
<clipPath id="clip0_1_945">
<rect width="50" height="39.84" fill="white"/>
</clipPath>
</defs>
</svg>

<svg xmlns="http://www.w3.org/2000/svg" width="80" height="64" fill="none" viewBox="0 0 50 40"><g clip-path="url(#a)"><path fill="#1A1918" d="M31.82 7.943a2.411 2.411 0 0 0-3.411 0l-15.35 15.35a4.825 4.825 0 0 1-6.821-6.824L21.292 1.416a4.823 4.823 0 0 0-6.823 0L2.825 13.059c-3.767 3.768-3.767 9.876 0 13.645a9.647 9.647 0 0 0 13.645 0l15.35-15.35a2.413 2.413 0 0 0 0-3.411Zm5.116-5.117a9.646 9.646 0 0 0-13.644 0l-15.35 15.35a2.411 2.411 0 1 0 3.41 3.411l15.352-15.35a4.822 4.822 0 0 1 6.82 0 2.412 2.412 0 1 0 3.412-3.411Zm5.117 15.35a2.415 2.415 0 0 0-3.412 0l-15.35 15.349a4.824 4.824 0 0 1-6.821 0 2.412 2.412 0 0 0-3.41 3.41c3.766 3.769 9.875 3.769 13.644 0l15.349-15.348a2.413 2.413 0 0 0 0-3.412Zm5.117-5.116c-3.768-3.768-9.877-3.768-13.644 0l-15.35 15.35a2.412 2.412 0 1 0 3.41 3.41l15.35-15.35a4.823 4.823 0 1 1 6.822 6.823L28.704 38.346a4.826 4.826 0 0 0 6.822 0L47.17 26.704c3.767-3.769 3.767-9.877 0-13.645Z"/></g><defs><clipPath id="a"><path fill="#fff" d="M0 0h50v39.84H0z"/></clipPath></defs></svg>
